app/component-library/components/Icons/Icon/assets/trash.svg

<svg width="24" height="24" viewBox="0 0 24 24" fill="none" xmlns="http://www.w3.org/2000/svg">
<path d="M21.3509 5.23C19.7409 5.07 18.1309 4.95 16.5109 4.86V4.85L16.2909 3.55C16.1409 2.63 15.9209 1.25 13.5809 1.25H10.9609C8.63092 1.25 8.41092 2.57 8.25092 3.54L8.04092 4.82C7.11092 4.88 6.18092 4.94 5.25092 5.03L3.21092 5.23C2.79092 5.27 2.49092 5.64 2.53092 6.05C2.57092 6.46 2.93092 6.76 3.35092 6.72L5.39092 6.52C10.6309 6 15.9109 6.2 21.2109 6.73C21.2409 6.73 21.2609 6.73 21.2909 6.73C21.6709 6.73 22.0009 6.44 22.0409 6.05C22.0709 5.64 21.7709 5.27 21.3509 5.23Z" fill="currentColor"/>
<path d="M19.5109 8.14C19.2709 7.89 18.9409 7.75 18.6009 7.75H5.96092C5.62092 7.75 5.28092 7.89 5.05092 8.14C4.82092 8.39 4.69092 8.73 4.71092 9.08L5.33092 19.34C5.44092 20.86 5.58092 22.76 9.07092 22.76H15.4909C18.9809 22.76 19.1209 20.87 19.2309 19.34L19.8509 9.09C19.8709 8.73 19.7409 8.39 19.5109 8.14ZM13.9409 17.75H10.6109C10.2009 17.75 9.86092 17.41 9.86092 17C9.86092 16.59 10.2009 16.25 10.6109 16.25H13.9409C14.3509 16.25 14.6909 16.59 14.6909 17C14.6909 17.41 14.3509 17.75 13.9409 17.75ZM14.7809 13.75H9.78092C9.37092 13.75 9.03092 13.41 9.03092 13C9.03092 12.59 9.37092 12.25 9.78092 12.25H14.7809C15.1909 12.25 15.5309 12.59 15.5309 13C15.5309 13.41 15.1909 13.75 14.7809 13.75Z" fill="currentColor"/>
</svg>

<svg xmlns="http://www.w3.org/2000/svg" width="24" height="24" viewBox="0 0 24 24" fill="none"><path fill="currentColor" d="M21.35 5.23c-1.61-.16-3.22-.28-4.84-.37v-.01l-.22-1.3c-.15-.92-.37-2.3-2.71-2.3h-2.62c-2.33 0-2.55 1.32-2.71 2.29l-.21 1.28c-.93.06-1.86.12-2.79.21l-2.04.2c-.42.04-.72.41-.68.82.04.41.4.71.82.67l2.04-.2c5.24-.52 10.52-.32 15.82.21h.08c.38 0 .71-.29.75-.68a.766.766 0 0 0-.69-.82ZM19.51 8.14c-.24-.25-.57-.39-.91-.39H5.96c-.34 0-.68.14-.91.39-.23.25-.36.59-.34.94l.62 10.26c.11 1.52.25 3.42 3.74 3.42h6.42c3.49 0 3.63-1.89 3.74-3.42l.62-10.25c.02-.36-.11-.7-.34-.95Zm-5.57 9.61h-3.33c-.41 0-.75-.34-.75-.75s.34-.75.75-.75h3.33c.41 0 .75.34.75.75s-.34.75-.75.75Zm.84-4h-5c-.41 0-.75-.34-.75-.75s.34-.75.75-.75h5c.41 0 .75.34.75.75s-.34.75-.75.75Z"/></svg>
